X: 1
T: Cooley's
M: 4/4
R: reel
K: Emin
|:D2|EB{c}BA B2 EB|~B2 AB dBAG|FDAD BDAD|FDAD dAFD|
eB B2 eBgB|eB B2 defg|afe^c dBAF|DEFD E2:|
